Comments.svg

<?xml version="1.0" encoding="UTF-8" standalone="no"?>
<!-- Created with Inkscape (http://www.inkscape.org/) -->

<svg
   xmlns:dc="http://purl.org/dc/elements/1.1/"
   xmlns:cc="http://creativecommons.org/ns#"
   xmlns:rdf="http://www.w3.org/1999/02/22-rdf-syntax-ns#"
   xmlns:svg="http://www.w3.org/2000/svg"
   xmlns="http://www.w3.org/2000/svg"
   xmlns:xlink="http://www.w3.org/1999/xlink"
   xmlns:sodipodi="http://sodipodi.sourceforge.net/DTD/sodipodi-0.dtd"
   xmlns:inkscape="http://www.inkscape.org/namespaces/inkscape"
   width="100"
   height="100"
   id="svg3932"
   version="1.1"
   inkscape:version="0.48.4 r9939"
   sodipodi:docname="Comments.svg">
  <metadata
     id="metadata13">
    <rdf:RDF>
      <cc:Work
         rdf:about="">
        <dc:format>image/svg+xml</dc:format>
        <dc:type
           rdf:resource="http://purl.org/dc/dcmitype/StillImage" />
      </cc:Work>
    </rdf:RDF>
  </metadata>
  <defs
     id="defs11">
    <linearGradient
       y2="796.64795"
       x2="334.28577"
       y1="1009.505"
       x1="644.28564"
       gradientTransform="matrix(0.14285713,0,0,0.19999998,0,-110.4725)"
       gradientUnits="userSpaceOnUse"
       id="linearGradient3058"
       xlink:href="#linearGradient5322-1"
       inkscape:collect="always" />
    <linearGradient
       id="linearGradient5322-1">
      <stop
         style="stop-color:#000000;stop-opacity:0.37391305;"
         offset="0"
         id="stop5324-6" />
      <stop
         style="stop-color:#000000;stop-opacity:0;"
         offset="1"
         id="stop5326-3" />
    </linearGradient>
    <linearGradient
       y2="796.64795"
       x2="334.28577"
       y1="1009.505"
       x1="644.28564"
       gradientTransform="matrix(0.14285713,0,0,0.19999998,0,-110.4725)"
       gradientUnits="userSpaceOnUse"
       id="linearGradient3033"
       xlink:href="#linearGradient5322-1"
       inkscape:collect="always" />
    <linearGradient
       inkscape:collect="always"
       xlink:href="#linearGradient5322"
       id="linearGradient3799"
       x1="-72.770866"
       y1="98.260445"
       x2="-108.53157"
       y2="74.678169"
       gradientUnits="userSpaceOnUse"
       gradientTransform="translate(157.25636,-12.92373)" />
    <linearGradient
       id="linearGradient5322">
      <stop
         style="stop-color:#000000;stop-opacity:0.37391305;"
         offset="0"
         id="stop5324" />
      <stop
         style="stop-color:#000000;stop-opacity:0;"
         offset="1"
         id="stop5326" />
    </linearGradient>
    <linearGradient
       y2="74.678169"
       x2="-108.53157"
       y1="98.260445"
       x1="-72.770866"
       gradientTransform="translate(157.25636,-12.923733)"
       gradientUnits="userSpaceOnUse"
       id="linearGradient3833"
       xlink:href="#linearGradient5322"
       inkscape:collect="always" />
  </defs>
  <sodipodi:namedview
     pagecolor="#ffffff"
     bordercolor="#666666"
     borderopacity="1"
     objecttolerance="10"
     gridtolerance="10"
     guidetolerance="10"
     inkscape:pageopacity="0"
     inkscape:pageshadow="2"
     inkscape:window-width="1920"
     inkscape:window-height="1145"
     id="namedview9"
     showgrid="false"
     inkscape:zoom="5.3400704"
     inkscape:cx="48.126751"
     inkscape:cy="22.559902"
     inkscape:window-x="-2"
     inkscape:window-y="-3"
     inkscape:window-maximized="1"
     inkscape:current-layer="svg3932" />
  <path
     inkscape:connector-curvature="0"
     style="fill:#ff6600;display:inline"
     d="M 12.1375,0 C 5.4350604,0 0,5.43508 0,12.1375 L 0,87.86872 C 0,94.5712 5.4350604,100 12.1375,100 l 75.725,0 C 94.56492,100 100,94.5712 100,87.86872 L 100,12.1375 C 100,5.43508 94.56516,0 87.8625,0 l -75.725,0 z"
     id="path3003-1" />
  <path
     inkscape:connector-curvature="0"
     style="fill:#ffffff;display:inline"
     d="m 49.978056,23.50049 c 16.68181,-0.0802 31.580262,8.46625 34.540774,20.36282 0.522062,2.09797 0.63903,5.6524 0.253488,7.69452 -1.352286,7.16255 -6.661282,13.27467 -15.028504,17.30419 -4.049088,1.94994 -7.782214,3.0887 -12.595102,3.84724 -2.532666,0.39917 -8.433842,0.5442 -11.51359,0.28164 l -2.540436,-0.21404 -1.830674,0.88999 c -1.987386,0.96634 -4.942652,2.00214 -6.990404,2.4503 -1.43138,0.31326 -6.842632,0.50611 -8.223992,0.29291 -0.463932,-0.0716 -0.902594,-0.19285 -0.974498,-0.26476 -0.07186,-0.0719 0.190006,-0.46759 0.58582,-0.88435 2.39351,-2.52011 3.35811,-4.71913 2.760124,-6.29192 -0.290906,-0.7652 -1.39104,-1.83671 -3.289596,-3.19383 -2.085534,-1.49079 -4.825866,-4.13858 -6.168004,-5.95959 -1.118031,-1.51691 -2.556153,-4.25144 -3.064283,-5.83002 -3.152804,-9.79492 2.121709,-19.65407 13.682239,-25.5845 5.40451,-2.77249 10.028962,-4.12305 16.121298,-4.69218 1.433128,-0.13389 2.861626,-0.20163 4.27534,-0.20842 z"
     id="path7-0" />
  <path
     style="fill:#000000;fill-opacity:0.78431373;display:inline"
     d="M 12.1375,0 C 5.435084,0 -2.0000166e-5,5.43508 0,12.1375 l 0,75.725 C 0,94.56491 5.435084,100.00002 12.1375,100 l 75.725,0 C 94.56494,100 99.99998,94.56491 100,87.8625 l 0,-75.725 C 100,5.43508 94.56516,0 87.8625,0 L 12.1375,0 z M 18.19375,8 81.8,8 C 87.430236,8 92,12.56372 92,18.19375 L 92,81.8 C 91.999984,87.43002 87.43005,92 81.8,92 L 18.19375,92 C 12.56372,92.00002 8,87.43002 8,81.8 L 8,18.19375 C 7.999984,12.56372 12.56372,8 18.19375,8 z"
     id="path7-8-6-9"
     inkscape:connector-curvature="0" />
  <path
     style="fill:url(#linearGradient3833);fill-opacity:1;display:inline"
     d="M 12.1375,-3.6000552e-6 C 5.43509,-3.6000552e-6 -1.9999945e-5,5.4350764 0,12.137496 L 0,87.862497 C 0,94.564897 5.43509,100.00002 12.1375,100 l 75.725,0 C 94.56494,100 99.99998,94.564897 100,87.862497 l 0,-75.725001 C 100,5.4350764 94.56516,-3.6000552e-6 87.8625,-3.6000552e-6 z"
     id="path7-8-6-9-9"
     inkscape:connector-curvature="0"
     sodipodi:nodetypes="sssssssss" />
</svg>

<svg xmlns="http://www.w3.org/2000/svg" viewBox="0 0 100 100"><defs><linearGradient y2="61.754" x2="48.725" y1="85.34" x1="84.49" gradientUnits="userSpaceOnUse" id="0"><stop stop-opacity=".374"/><stop offset="1" stop-opacity="0"/></linearGradient></defs><path d="m12.138 0c-6.702 0-12.138 5.435-12.138 12.138v75.73c0 6.702 5.435 12.13 12.138 12.13h75.72c6.702 0 12.138-5.429 12.138-12.13v-75.73c0-6.702-5.435-12.138-12.138-12.138h-75.72" fill="#f60"/><path d="m49.978 23.5c16.682-.08 31.58 8.466 34.541 20.363.522 2.098.639 5.652.253 7.695-1.352 7.163-6.661 13.275-15.03 17.304-4.049 1.95-7.782 3.089-12.595 3.847-2.533.399-8.434.544-11.514.282l-2.54-.214-1.831.89c-1.987.966-4.943 2-6.99 2.45-1.431.313-6.843.506-8.224.293-.464-.072-.903-.193-.974-.265-.072-.072.19-.468.586-.884 2.394-2.52 3.358-4.719 2.76-6.292-.291-.765-1.391-1.837-3.29-3.194-2.086-1.491-4.826-4.139-6.168-5.96-1.118-1.517-2.556-4.251-3.064-5.83-3.153-9.795 2.122-19.654 13.682-25.585 5.405-2.772 10.03-4.123 16.12-4.692 1.433-.134 2.862-.202 4.275-.208" fill="#fff"/><path d="m12.138 0c-6.702 0-12.138 5.435-12.138 12.138v75.72c0 6.702 5.435 12.138 12.138 12.138h75.72c6.702 0 12.137-5.435 12.138-12.138v-75.72c0-6.702-5.435-12.138-12.138-12.138h-75.72m6.06 8h63.61c5.63 0 10.2 4.564 10.2 10.194v63.61c0 5.63-4.57 10.2-10.2 10.2h-63.61c-5.63 0-10.194-4.57-10.194-10.2v-63.61c0-5.63 4.564-10.194 10.194-10.194" fill-opacity=".784"/><path d="m12.138 0c-6.702 0-12.138 5.435-12.138 12.137v75.73c0 6.702 5.435 12.138 12.138 12.138h75.72c6.702 0 12.137-5.435 12.138-12.138v-75.73c0-6.702-5.435-12.137-12.138-12.137z" fill="url(#0)"/></svg>
